;FLAVOR:Marlin
;TIME:1767
;Filament used: 0.86202m
;Layer height: 0.2
;MINX:12.401
;MINY:101.677
;MINZ:0.2
;MAXX:293.109
;MAXY:142.759
;MAXZ:2
;TARGET_MACHINE.NAME:Creality CR-10 Mini
;Generated with Cura_SteamEngine 5.8.0
M140 S50
M105
M190 S50
M104 S200
M105
M109 S200
M82 ;absolute extrusion mode
M201 X500.00 Y500.00 Z100.00 E5000.00 ;Setup machine max acceleration
M203 X500.00 Y500.00 Z10.00 E50.00 ;Setup machine max feedrate
M204 P500.00 R1000.00 T500.00 ;Setup Print/Retract/Travel acceleration
M205 X8.00 Y8.00 Z0.40 E5.00 ;Setup Jerk
M220 S100 ;Reset Feedrate
M221 S100 ;Reset Flowrate

G28 ;Home

G92 E0 ;Reset Extruder
G1 Z2.0 F3000 ;Move Z Axis up
G1 X10.1 Y20 Z0.28 F5000.0 ;Move to start position
G1 X10.1 Y200.0 Z0.28 F1500.0 E15 ;Draw the first line
G1 X10.4 Y200.0 Z0.28 F5000.0 ;Move to side a little
G1 X10.4 Y20 Z0.28 F1500.0 E30 ;Draw the second line
G92 E0 ;Reset Extruder
G1 Z2.0 F3000 ;Move Z Axis up

G92 E0
G92 E0
G1 F2700 E-5
;LAYER_COUNT:10
;LAYER:0
M107
G0 F6000 X24.111 Y106.483 Z0.2
;TYPE:SKIRT
G1 F2700 E0
G1 F1200 X25.071 Y106.328 E0.03234
G1 X26.011 Y106.258 E0.06369
G1 X26.67 Y106.243 E0.08562
G1 X27.458 Y106.244 E0.11183
G1 X28.795 Y106.263 E0.1563
G1 X31.367 Y106.263 E0.24185
G1 X33.908 Y106.191 E0.32639
G1 X36.414 Y106.049 E0.40988
G1 X38.915 Y105.838 E0.49336
G1 X41.399 Y105.555 E0.57651
G1 X43.948 Y105.193 E0.66214
G1 X46.38 Y104.776 E0.74421
G1 X48.849 Y104.281 E0.82796
G1 X51.316 Y103.715 E0.91215
G1 X53.756 Y103.079 E0.99601
G1 X55.013 Y102.714 E1.03955
G1 X56.815 Y102.224 E1.10166
G1 X57.436 Y102.072 E1.12292
G1 X58.365 Y101.897 E1.15437
G1 X59.016 Y101.819 E1.17617
G1 X59.782 Y101.755 E1.20174
G1 X60.652 Y101.703 E1.23073
G1 X61.623 Y101.696 E1.26302
G1 X62.508 Y101.765 E1.29255
G1 X63.46 Y101.879 E1.32444
G1 X64.921 Y102.073 E1.37346
G1 X66.509 Y102.309 E1.42685
G1 X69.08 Y102.652 E1.51312
G1 X71.603 Y102.916 E1.5975
G1 X74.091 Y103.107 E1.68049
G1 X76.401 Y103.221 E1.75742
G1 X77.289 Y103.256 E1.78697
G1 X78.038 Y103.311 E1.81195
G1 X80.992 Y103.633 E1.91079
G1 X83.509 Y103.834 E1.99477
G1 X86.015 Y103.96 E2.07822
G1 X88.515 Y104.016 E2.16139
G1 X91.043 Y104.001 E2.24548
G1 X93.566 Y103.915 E2.32944
G1 X96.033 Y103.76 E2.41166
G1 X99.528 Y103.426 E2.52843
G1 X100.869 Y103.283 E2.57328
G1 X103.799 Y103.075 E2.67098
G1 X106.25 Y102.828 E2.75292
G1 X108.758 Y102.505 E2.83702
G1 X111.353 Y102.094 E2.92441
G1 X112.785 Y101.844 E2.97276
G1 X113.68 Y101.728 E3.00277
G1 X114.339 Y101.69 E3.02473
G1 X115.043 Y101.677 E3.04815
G1 X116.424 Y101.689 E3.09408
G1 X117.397 Y101.742 E3.12649
G1 X118.364 Y101.882 E3.15899
G1 X119.397 Y102.13 E3.19432
G1 X122.568 Y103.059 E3.30422
G1 X124.947 Y103.678 E3.38598
G1 X127.455 Y104.255 E3.47158
G1 X129.909 Y104.747 E3.55482
G1 X132.347 Y105.165 E3.6371
G1 X134.86 Y105.523 E3.72152
G1 X137.38 Y105.809 E3.80588
G1 X139.868 Y106.023 E3.88893
G1 X142.384 Y106.164 E3.97275
G1 X144.98 Y106.238 E4.05912
G1 X145.786 Y106.25 E4.08593
G1 X150.009 Y106.244 E4.22639
G1 X151.861 Y106.27 E4.288
G1 X154.473 Y106.27 E4.37487
G1 X155.692 Y106.245 E4.41542
G1 X156.721 Y106.244 E4.44965
G1 X158.054 Y106.263 E4.49399
G1 X160.626 Y106.263 E4.57953
G1 X163.172 Y106.191 E4.66425
G1 X165.311 Y106.078 E4.73549
G1 X165.861 Y106.062 E4.75379
G1 X166.515 Y106.06 E4.77554
G1 X167.732 Y106.074 E4.81602
G1 X170.268 Y106.033 E4.90038
G1 X172.8 Y105.921 E4.98468
G1 X175.304 Y105.739 E5.06818
G1 X177.785 Y105.489 E5.15112
G1 X180.282 Y105.165 E5.23487
G1 X182.801 Y104.765 E5.3197
G1 X185.257 Y104.303 E5.40282
G1 X187.689 Y103.777 E5.48558
G1 X190.186 Y103.16 E5.57113
G1 X190.893 Y102.964 E5.59553
G1 X191.06 Y102.926 E5.60122
G1 X193.662 Y102.221 E5.69089
G1 X194.284 Y102.068 E5.71219
G1 X195.171 Y101.899 E5.74222
G1 X195.845 Y101.819 E5.7648
G1 X196.603 Y101.756 E5.7901
G1 X197.469 Y101.704 E5.81895
G1 X198.44 Y101.696 E5.85125
G1 X199.333 Y101.764 E5.88104
G1 X200.291 Y101.879 E5.91313
G1 X201.884 Y102.092 E5.96658
G1 X203.197 Y102.289 E6.01074
G1 X205.683 Y102.621 E6.09416
G1 X208.218 Y102.887 E6.17894
G1 X210.703 Y103.078 E6.26183
G1 X213.269 Y103.202 E6.34728
G1 X215.066 Y103.246 E6.40706
G1 X216.112 Y103.262 E6.44186
G1 X217.083 Y103.321 E6.47421
G1 X218.004 Y103.458 E6.50518
G1 X218.526 Y103.571 E6.52295
G1 X219.175 Y103.729 E6.54516
G1 X221.739 Y104.32 E6.63268
G1 X224.2 Y104.814 E6.71617
G1 X226.638 Y105.232 E6.79844
G1 X229.151 Y105.59 E6.88286
G1 X231.671 Y105.876 E6.96722
G1 X234.159 Y106.09 E7.05027
G1 X236.675 Y106.231 E7.13409
G1 X239.208 Y106.303 E7.21837
G1 X241.72 Y106.303 E7.30192
G1 X244.307 Y106.243 E7.38799
G1 X245.073 Y106.244 E7.41346
G1 X247.572 Y106.288 E7.49659
G1 X250.076 Y106.288 E7.57988
G1 X252.615 Y106.215 E7.66436
G1 X257.183 Y105.95 E7.81655
G1 X259.722 Y105.734 E7.9013
G1 X262.214 Y105.447 E7.98473
G1 X264.712 Y105.089 E8.06866
G1 X267.185 Y104.663 E8.15213
G1 X269.641 Y104.168 E8.23546
G1 X272.457 Y103.521 E8.33156
G1 X273.399 Y103.35 E8.3634
G1 X274.403 Y103.258 E8.39693
G1 X275.375 Y103.256 E8.42926
G1 X276.281 Y103.332 E8.4595
G1 X276.772 Y103.394 E8.47596
G1 X278.202 Y103.605 E8.52404
G1 X278.975 Y103.732 E8.55009
G1 X279.927 Y103.934 E8.58246
G1 X280.858 Y104.22 E8.61486
G1 X281.76 Y104.587 E8.64725
G1 X282.619 Y105.028 E8.67936
G1 X283.228 Y105.401 E8.70311
G1 X284.202 Y106.046 E8.74197
G1 X284.801 Y106.462 E8.76622
G1 X285.587 Y107.065 E8.79917
G1 X286.306 Y107.723 E8.83159
G1 X286.94 Y108.416 E8.86283
G1 X287.558 Y109.226 E8.89672
G1 X288.178 Y110.232 E8.93602
G1 X289.719 Y113.092 E9.04407
G1 X291.041 Y115.374 E9.13179
G1 X291.552 Y116.228 E9.16489
G1 X292.012 Y117.086 E9.19727
G1 X292.396 Y117.982 E9.22969
G1 X292.678 Y118.839 E9.2597
G1 X292.916 Y119.856 E9.29444
G1 X293.05 Y120.819 E9.32678
G1 X293.099 Y121.696 E9.35599
G1 X293.109 Y122.71 E9.38972
G1 X293.096 Y123.451 E9.41437
G1 X293.035 Y124.423 E9.44676
G1 X292.888 Y125.387 E9.4792
G1 X292.656 Y126.332 E9.51156
G1 X292.354 Y127.221 E9.54279
G1 X291.948 Y128.14 E9.5762
G1 X291.547 Y128.879 E9.60417
G1 X290.161 Y131.203 E9.69417
G1 X288.926 Y133.412 E9.77834
G1 X288.235 Y134.717 E9.82746
G1 X287.728 Y135.572 E9.86052
G1 X287.16 Y136.361 E9.89285
G1 X286.524 Y137.099 E9.92526
G1 X285.846 Y137.758 E9.9567
G1 X284.783 Y138.597 E10.00174
G1 X284.012 Y139.13 E10.03292
G1 X283.132 Y139.705 E10.06788
G1 X282.354 Y140.163 E10.09791
G1 X281.409 Y140.61 E10.13268
G1 X280.479 Y140.95 E10.16561
G1 X279.14 Y141.282 E10.2115
G1 X278.406 Y141.41 E10.23628
G1 X277.134 Y141.597 E10.27904
G1 X276.3 Y141.707 E10.30702
G1 X275.4 Y141.785 E10.33707
G1 X274.793 Y141.796 E10.35726
G1 X274.227 Y141.79 E10.37608
G1 X271.7 Y141.801 E10.46013
G1 X268.252 Y141.927 E10.57489
G1 X267.487 Y141.971 E10.60038
G1 X266.447 Y141.978 E10.63497
G1 X264.069 Y141.878 E10.71413
G1 X261.536 Y141.839 E10.79839
G1 X259.047 Y141.872 E10.88118
G1 X256.129 Y141.989 E10.97831
G1 X254.913 Y141.976 E11.01876
G1 X254.309 Y141.936 E11.03889
G1 X251.767 Y141.811 E11.12354
G1 X249.23 Y141.756 E11.20794
G1 X245.149 Y141.805 E11.34369
G1 X243.171 Y141.781 E11.40948
G1 X242.001 Y141.748 E11.44841
G1 X239.486 Y141.746 E11.53206
G1 X236.888 Y141.806 E11.61849
G1 X226.142 Y141.802 E11.9759
G1 X223.564 Y141.874 E12.06168
G1 X221.613 Y141.974 E12.12666
G1 X220.71 Y141.98 E12.15669
G1 X220.082 Y141.94 E12.17762
G1 X219.038 Y141.84 E12.2125
G1 X218.263 Y141.746 E12.23847
G1 X217.543 Y141.635 E12.2627
G1 X215.091 Y141.168 E12.34572
G1 X212.603 Y140.764 E12.42956
G1 X210.151 Y140.437 E12.51183
G1 X207.582 Y140.168 E12.59774
G1 X205.12 Y139.981 E12.67987
G1 X202.588 Y139.86 E12.76418
G1 X200.086 Y139.811 E12.84741
G1 X197.556 Y139.834 E12.93156
G1 X195.023 Y139.928 E13.01587
G1 X192.518 Y140.092 E13.09936
G1 X190.033 Y140.326 E13.18238
G1 X187.532 Y140.632 E13.26618
G1 X185.034 Y141.012 E13.35022
G1 X182.536 Y141.46 E13.43463
G1 X180.104 Y141.972 E13.51729
G1 X178.947 Y142.236 E13.55677
G1 X178.202 Y142.388 E13.58205
G1 X177.239 Y142.537 E13.61446
G1 X176.268 Y142.6 E13.64683
G1 X175.294 Y142.577 E13.67923
G1 X174.381 Y142.477 E13.70978
G1 X171.253 Y141.988 E13.81508
G1 X168.753 Y141.674 E13.89889
G1 X166.247 Y141.432 E13.98262
G1 X163.769 Y141.263 E14.06523
G1 X161.202 Y141.16 E14.15068
G1 X158.74 Y141.131 E14.23257
G1 X156.204 Y141.174 E14.31693
G1 X153.672 Y141.287 E14.40123
G1 X151.154 Y141.471 E14.4852
G1 X148.685 Y141.724 E14.56775
G1 X146.176 Y142.051 E14.65191
G1 X143.533 Y142.469 E14.74091
G1 X142.565 Y142.577 E14.7733
G1 X141.591 Y142.597 E14.80571
G1 X140.622 Y142.531 E14.83801
G1 X139.711 Y142.392 E14.86866
G1 X138.582 Y142.169 E14.90694
G1 X136.076 Y141.709 E14.99168
G1 X133.568 Y141.321 E15.07609
G1 X131.062 Y141.005 E15.1601
G1 X128.568 Y140.763 E15.24344
G1 X126.074 Y140.592 E15.32658
G1 X123.508 Y140.488 E15.412
G1 X121.043 Y140.457 E15.49399
G1 X118.503 Y140.499 E15.57848
G1 X115.982 Y140.61 E15.66241
G1 X113.467 Y140.794 E15.74629
G1 X111.005 Y141.043 E15.82859
G1 X108.471 Y141.373 E15.91358
G1 X105.955 Y141.773 E15.99832
G1 X103.539 Y142.226 E16.08007
G1 X102.418 Y142.449 E16.11809
G1 X101.458 Y142.595 E16.15039
G1 X100.596 Y142.654 E16.17912
G1 X99.892 Y142.667 E16.20254
G1 X98.494 Y142.655 E16.24904
G1 X97.392 Y142.59 E16.28576
G1 X94.895 Y142.31 E16.36933
G1 X92.411 Y142.097 E16.45225
G1 X89.896 Y141.956 E16.53603
G1 X87.282 Y141.882 E16.62301
G1 X85.206 Y141.855 E16.69206
G1 X84.304 Y141.817 E16.72209
G1 X81.714 Y141.743 E16.80827
G1 X79.193 Y141.743 E16.89212
G1 X77.07 Y141.793 E16.96275
G1 X76.102 Y141.771 E16.99495
G1 X75.304 Y141.688 E17.02164
G1 X73.733 Y141.466 E17.07441
G1 X71.177 Y141.125 E17.16017
G1 X68.69 Y140.863 E17.24335
G1 X66.135 Y140.67 E17.32857
G1 X63.639 Y140.55 E17.41168
G1 X61.135 Y140.501 E17.49498
G1 X58.605 Y140.524 E17.57914
G1 X56.072 Y140.618 E17.66344
G1 X53.575 Y140.781 E17.74667
G1 X51.08 Y141.016 E17.83002
G1 X48.564 Y141.324 E17.91433
G1 X46.106 Y141.696 E17.99701
G1 X42.962 Y142.274 E18.10333
G1 X42.09 Y142.448 E18.13291
G1 X41.128 Y142.595 E18.16528
G1 X40.262 Y142.654 E18.19415
G1 X39.634 Y142.667 E18.21504
G1 X33.67 Y142.664 E18.4134
G1 X30.362 Y142.759 E18.52347
G1 X29.407 Y142.745 E18.55524
G1 X28.502 Y142.694 E18.58539
G1 X27.818 Y142.637 E18.60821
G1 X26.811 Y142.497 E18.64203
G1 X25.918 Y142.293 E18.6725
G1 X25.244 Y142.108 E18.69574
G1 X24.579 Y141.909 E18.71883
G1 X23.728 Y141.605 E18.74889
G1 X22.784 Y141.169 E18.78347
G1 X22.091 Y140.776 E18.80997
G1 X21.403 Y140.338 E18.83709
G1 X20.93 Y140.013 E18.85618
G1 X20.149 Y139.422 E18.88876
G1 X19.308 Y138.65 E18.92673
G1 X18.724 Y138.053 E18.95451
G1 X17.931 Y137.219 E18.99278
G1 X16.309 Y135.604 E19.06891
G1 X15.715 Y135.025 E19.0965
G1 X15.051 Y134.315 E19.12883
G1 X14.492 Y133.606 E19.15886
G1 X13.921 Y132.728 E19.1937
G1 X13.467 Y131.868 E19.22604
G1 X13.088 Y130.969 E19.25849
G1 X12.793 Y130.042 E19.29085
G1 X12.581 Y129.092 E19.32322
G1 X12.453 Y128.135 E19.35533
G1 X12.411 Y127.394 E19.38002
G1 X12.401 Y126.59 E19.40676
G1 X12.411 Y125.933 E19.42862
G1 X12.471 Y124.945 E19.46154
G1 X12.617 Y123.981 E19.49397
G1 X12.837 Y123.072 E19.52507
G1 X13.088 Y122.304 E19.55195
G1 X13.599 Y120.917 E19.60111
G1 X14.466 Y118.449 E19.68811
G1 X15.23 Y116.059 E19.77157
G1 X15.671 Y114.542 E19.82411
G1 X15.85 Y113.968 E19.84411
G1 X16.181 Y113.053 E19.87647
G1 X16.593 Y112.17 E19.90888
G1 X17.081 Y111.327 E19.94128
G1 X17.641 Y110.531 E19.97365
G1 X18.27 Y109.787 E20.00605
G1 X18.961 Y109.103 E20.03839
G1 X19.711 Y108.48 E20.07082
G1 X20.453 Y107.966 E20.10084
G1 X21.361 Y107.448 E20.13561
G1 X22.248 Y107.046 E20.168
G1 X23.167 Y106.724 E20.20039
G1 X24.111 Y106.483 E20.23279
G0 F6000 X24.175 Y106.878
G1 F1200 X25.101 Y106.727 E20.264
G1 X26.02 Y106.658 E20.29465
G1 X26.669 Y106.643 E20.31624
G1 X27.452 Y106.644 E20.34229
G1 X28.789 Y106.663 E20.38676
G1 X31.378 Y106.663 E20.47287
G1 X33.919 Y106.591 E20.55742
G1 X36.448 Y106.448 E20.64167
G1 X38.949 Y106.236 E20.72515
G1 X41.455 Y105.951 E20.80904
G1 X44.004 Y105.589 E20.89467
G1 X46.455 Y105.169 E20.97738
G1 X48.938 Y104.671 E21.06161
G1 X51.405 Y104.105 E21.14579
G1 X53.861 Y103.465 E21.23021
G1 X55.118 Y103.1 E21.27374
G1 X56.91 Y102.613 E21.3355
G1 X57.531 Y102.461 E21.35677
G1 X58.439 Y102.29 E21.3875
G1 X59.05 Y102.218 E21.40796
G1 X59.806 Y102.154 E21.4332
G1 X60.655 Y102.103 E21.46149
G1 X61.592 Y102.095 E21.49265
G1 X62.461 Y102.162 E21.52164
G1 X63.407 Y102.275 E21.55333
G1 X64.862 Y102.469 E21.60215
G1 X66.45 Y102.704 E21.65554
G1 X69.038 Y103.05 E21.74239
G1 X71.567 Y103.315 E21.82696
G1 X74.071 Y103.507 E21.91049
G1 X76.381 Y103.621 E21.98741
G1 X77.26 Y103.655 E22.01667
G1 X77.995 Y103.709 E22.04118
G1 X80.953 Y104.031 E22.14015
G1 X83.477 Y104.232 E22.22436
G1 X86.006 Y104.36 E22.30858
G1 X88.508 Y104.416 E22.39182
G1 X91.057 Y104.401 E22.4766
G1 X93.58 Y104.315 E22.56057
G1 X96.065 Y104.159 E22.64338
G1 X99.571 Y103.824 E22.76052
G1 X100.897 Y103.682 E22.80488
G1 X103.834 Y103.474 E22.90281
G1 X106.301 Y103.225 E22.98528
G1 X108.809 Y102.902 E23.06938
G1 X111.416 Y102.489 E23.15717
G1 X112.836 Y102.241 E23.20512
G1 X113.731 Y102.125 E23.23513
G1 X114.346 Y102.09 E23.25562
G1 X115.04 Y102.077 E23.27871
G1 X116.403 Y102.088 E23.32404
G1 X117.34 Y102.138 E23.35525
G1 X118.271 Y102.271 E23.38653
G1 X119.285 Y102.514 E23.42121
G1 X122.46 Y103.444 E23.53125
G1 X124.857 Y104.068 E23.61363
G1 X127.365 Y104.645 E23.69923
G1 X129.834 Y105.14 E23.78298
G1 X132.291 Y105.561 E23.86589
G1 X134.804 Y105.919 E23.95032
G1 X137.346 Y106.208 E24.03541
G1 X139.834 Y106.421 E24.11847
G1 X142.373 Y106.564 E24.20305
G1 X144.969 Y106.638 E24.28943
G1 X145.781 Y106.65 E24.31644
G1 X150.003 Y106.644 E24.45686
G1 X151.855 Y106.67 E24.51846
G1 X154.481 Y106.67 E24.6058
G1 X155.692 Y106.645 E24.64609
G1 X156.715 Y106.644 E24.68012
G1 X158.048 Y106.663 E24.72446
G1 X160.637 Y106.663 E24.81057
G1 X163.183 Y106.591 E24.89528
G1 X165.332 Y106.477 E24.96686
G1 X165.862 Y106.462 E24.98449
G1 X166.51 Y106.46 E25.00605
G1 X167.733 Y106.474 E25.04673
G1 X170.286 Y106.433 E25.13165
G1 X172.818 Y106.321 E25.21595
G1 X175.337 Y106.138 E25.29995
G1 X177.836 Y105.886 E25.38349
G1 X180.333 Y105.562 E25.46723
G1 X182.864 Y105.16 E25.55247
G1 X185.342 Y104.694 E25.63633
G1 X187.774 Y104.168 E25.71909
G1 X190.282 Y103.548 E25.80502
G1 X190.982 Y103.354 E25.82918
G1 X191.157 Y103.314 E25.83515
G1 X193.757 Y102.609 E25.92475
G1 X194.359 Y102.461 E25.94537
G1 X195.246 Y102.292 E25.9754
G1 X195.879 Y102.218 E25.9966
G1 X196.627 Y102.155 E26.02157
G1 X197.473 Y102.104 E26.04975
G1 X198.41 Y102.095 E26.08092
G1 X199.285 Y102.161 E26.11011
G1 X200.238 Y102.275 E26.14203
G1 X201.825 Y102.488 E26.19529
G1 X203.138 Y102.684 E26.23944
G1 X205.641 Y103.019 E26.32343
G1 X208.181 Y103.286 E26.40838
G1 X210.684 Y103.478 E26.49187
G1 X213.25 Y103.602 E26.57732
G1 X215.056 Y103.646 E26.6374
G1 X216.088 Y103.661 E26.67173
G1 X217.024 Y103.717 E26.70292
G1 X217.945 Y103.854 E26.73389
G1 X218.431 Y103.96 E26.75043
G1 X219.08 Y104.118 E26.77265
G1 X221.649 Y104.71 E26.86033
G1 X224.125 Y105.207 E26.94433
G1 X226.582 Y105.628 E27.02724
G1 X229.095 Y105.986 E27.11167
G1 X231.637 Y106.275 E27.19676
G1 X234.125 Y106.488 E27.27981
G1 X236.664 Y106.631 E27.36439
G1 X239.197 Y106.703 E27.44868
G1 X241.729 Y106.703 E27.53289
G1 X244.306 Y106.643 E27.61863
G1 X245.066 Y106.644 E27.6439
G1 X247.565 Y106.688 E27.72703
G1 X250.087 Y106.688 E27.81092
G1 X252.626 Y106.615 E27.8954
G1 X257.217 Y106.349 E28.04835
G1 X259.756 Y106.132 E28.13311
G1 X262.271 Y105.843 E28.21731
G1 X264.769 Y105.485 E28.30124
G1 X267.26 Y105.056 E28.38531
G1 X269.731 Y104.558 E28.46915
G1 X272.528 Y103.915 E28.5646
G1 X273.47 Y103.744 E28.59645
G1 X274.404 Y103.658 E28.62764
G1 X275.342 Y103.655 E28.65884
G1 X276.231 Y103.729 E28.68851
G1 X276.714 Y103.79 E28.7047
G1 X278.138 Y104 E28.75258
G1 X278.892 Y104.123 E28.77799
G1 X279.81 Y104.317 E28.80919
G1 X280.708 Y104.591 E28.84042
G1 X281.578 Y104.943 E28.87164
G1 X282.41 Y105.369 E28.90273
G1 X283.007 Y105.735 E28.92602
G1 X283.974 Y106.375 E28.96459
G1 X284.558 Y106.78 E28.98822
G1 X285.317 Y107.36 E29.01999
G1 X286.011 Y107.994 E29.05126
G1 X286.622 Y108.659 E29.0813
G1 X287.217 Y109.436 E29.11385
